X:78
T:Willie Was a Wanton Wag.With Vars. RH.078
R:Air
S:Rev.R.Harrison’s MS,c1815,Cumbria
N:The 3rd variation is labelled “faster”, which is relief,
N:because otherwise I’d have dropped off to sleep.
O:England
A:Temple Sowerby,Cumbria
Z:vmp.Simon Wilson. Review PJH, 2008.
M:C
L:1/8
Q:1/2=80
K:D
|:A2|F2A2 A2Bc|d3e d2A2|F2A2 A2f2|e3d B4|\
F2A2A2(Bc)|(dc)(de)d2A2|F2A2A2f2|e3dd2:|!
|:g2|f2a2 e2f2|d3e e2d2|fga2 e2f2|e3d B4|\
f2a2 e2f2|d3e f2g2|a2A2 A2f2|e3d d2:|!
|:”Var. 1st”A2|D2A2 F2A2|d3e dcBA|FGA2 D2f2|gfed B4|\
FGA2 D2Bc|d3e fedc|Bcd2 A2a2|fedc d2:|!
|:g2|fga2 e2f2|d2f2 A2d2|F2A2 D2a2|bagf e2fg|\
a2e2 fedc|d2f2 A2GF|G2d2 F2d2|E2c2 d2:|!
|:”2nd”A2|FG/A/ DA dAFA|dcde dAFA|\
GdGd FdFd|BAGF E2A2|\
FG/A/ DA dAFA|fdAd fdAd|fgaf bagf|gfefd2:|!
|:fg|a2dab2db|a2dab2db|adbd adbd|bagf e2fg|\
a2f/e/d/c/ d2B/A/G/F/|G2B/A/G/F/ E2A/G/F/E/|\
D2f/g/a g/a/b e/f/g|fedc d2:|!
|:”3rd faster”A|((3FAA) ((3DAA)|((3d>ed) ((3dAA)|\
((3FAA) ((3def)|e>dB>A|\
((3FAA) ((3dAA)|((3eAA) ((3fAA)|\
((3adb) ((3agf)|((3edc) d:|!
|:(f/g/)|((3aAA) ((3gAA)|((3fAA) ((3eAA)|\
((3daa) ((3dbb)|e>d Bf/g/|((3agf) ((3gfe)|\
((3fed) ((3AGF)|((3GdG) ((3FdF)|((3dcd):|

